!!!OTL: Die Schlangenkoechin 'Hvar har du va't sa laenge?'
!!!ARE: Nordeuropa, Sverige
!!!YOR: 4, S. 210
!!    1842 gedruckt in Stockholm (vor)
!!!SCT: Q2079M
!!!YEM: Copyright 1995, estate of Helmut Schaffrath.
**kern
*ICvox
*Ivox
*M6/8
*k[b-e-]
*g:
{8g
=1
4g
8a
4b-
8f#
=2
4.cc#
4dd
8r}
=3
{4dd
8cc#
4dd
8b-
=4
4.a
4.r}
=5
{4a
8b-
4cc
8dd
=6
4.a
4b-
8r}
=7
{4.g
4g
8g
=8
4.f#
4.r}
=9
{4.g
4.a
=10
4.b-
4a
8b-
=11
4g
4g
8r}
==
!!!AGN: Ballade, Mord; Reigen - Tanz, antiphonal
!! Schwedische Fassung der Ballade.
!!    Zweite, vierte und fuenfte Zeile = Refrain.
!!!ONB: ESAC (Essen Associative Code) Database: BALLADE
!!!AMT: compound duple
!!!AIN: vox
!!!EED: Helmut Schaffrath
!!!EEV: 1.0
*-
